packages/icons/src/components/Icon/assets/small-outline/cursor.svg

<svg width="16" height="16" viewBox="0 0 16 16" fill="none" xmlns="http://www.w3.org/2000/svg">
<path d="M1.46965 1.46965C1.69782 1.24148 2.04622 1.1849 2.33488 1.32902L14.8349 7.57902C15.1061 7.71462 15.2693 8.00023 15.248 8.30266C15.2265 8.60524 15.025 8.86591 14.7372 8.96184L10.4042 10.4052L8.96184 14.7372C8.86591 15.025 8.60524 15.2265 8.30266 15.248C8.00023 15.2693 7.71462 15.1061 7.57902 14.8349L1.32902 2.33488C1.1849 2.04622 1.24148 1.69782 1.46965 1.46965ZM8.11027 12.5439L9.10051 9.57512C9.17518 9.35128 9.35127 9.17614 9.57512 9.10148L12.5448 8.11027L3.67668 3.67668L8.11027 12.5439Z" />
</svg>

<svg xmlns="http://www.w3.org/2000/svg" width="16" height="16" fill="none" viewBox="0 0 16 16">
    <path d="M1.47 1.47a.75.75 0 0 1 .865-.141l12.5 6.25a.75.75 0 0 1-.098 1.383l-4.333 1.443-1.442 4.332a.75.75 0 0 1-1.383.098l-6.25-12.5a.75.75 0 0 1 .14-.865m6.64 11.074.99-2.969a.75.75 0 0 1 .475-.474l2.97-.99-8.868-4.434z"/>
</svg>
